X: 1231
T: Karşıda Kandilli
C: Âmir Ateş
O: Turkey
F: http://compmusic.upf.edu/node/140
N: nihavent--sarki--sofyan--karsida_kandilli--amir_ates
N: makam= nihavent
N: form= sarki
N: usul= sofyan = 4/4
M: 4/4
L: 1/16
K: C _B _e  
Q: 1/4=96
%%MIDI tuningsystem comma53
dede c4 cdc=B c4  | cdcd B4 BcBA B4  | \
w:  ARANAĞME  |   | 
BcBc A4 ABAG A4  | 
w:   | 
AcBA BABc d8  | dede c4 cdc=B c4  | cdcd B4 BcBA B4  | 
w:   |   |   | 
BcBc A4 ABAG A4  | dedc BcBA G8  | G4 A2B2 c4 B2c2  | 
w:   |   |  Kar şı da  Kan dil  | 
d8 BcBc d4  | d3c d2e2 d2c2 B2A2  | G8 BAGA B4  | \
w:  li  SAZ  |  Sev *  dâ  *  *  *  te pe  |  si   SAZ  | 
B2B6 B4 B2A2  | 
w:  Ya nan  kan dil  | 
B3A B2c2 A6z2  | A2c2 B2A2 B3A B2c2  | \
w:  ler *  *  *  dir   |  o nun  *  *  *  *  kü pe  | 
d8 AcBA G4  | G4 A2B2 c4 B2c2  | 
w:  si   SAZ  |  Kar şı da  Kan dil  | 
d8 BcBc d4  | d3c d2e2 d2c2 B2A2  | G8 BAGA B4  | \
w:  li  SAZ  |  Sev *  dâ  *  *  *  te pe  |  si   SAZ  | 
B2B6 B4 B2A2  | 
w:  Ya nan  kan dil  | 
B3A B2c2 A6z2  | A2c2 B2A2 B3A B2c2  | \
w:  ler *  *  *  dir   |  o nun  *  *  *  *  kü pe  | 
d8 fede d4  | e4 c4 cdc=B c4  | 
w:  si   SAZ  |  Yıl dız  SAZ  | 
d4 B4 BcBA B4  | A2B4A2 G4 ^F2G2  | A8 D2^F2 A4  | \
w:  yıl dız  SAZ  |  ka ran lı ğın  ö te  |  si   SAZ  | 
B4 A4 B2G4z2  | 
w:  Yıl lar  yı lı   | 
c=Bcd c2B2 A4 d4  | d3c d2e2 d2c2 B2c2  | \
w:  sey *  *  *  *  *  re   |  dal *  sam  *  *  *  do ya  | 
d8 cdcd e4  | 
w:  mam   SAZ  | 
z2e4d2 e4 c4  | cBcd c2B2 A4 z4  | B4 A2B2 d4 A2B2  | \
w:  Öy le  ser mes  |  tim  *  *  *  *  *  ki   |  as la  *  *  a ya  | 
G8 ABAB G4  | 
w:  mam   SAZ  | 
e4 c4 cdc=B c4  | d4 B4 BcBA B4  | A2B4A2 G4 ^F2G2  | \
w:  Yıl dız  SAZ  |  yıl dız  SAZ  |  ka ran lı ğın  ö te  | 
A8 D2^F2 A4  | 
w:  si   SAZ  | 
B4 A4 B2G4z2  | c=Bcd c2B2 A4 d4  | d3c d2e2 d2c2 B2c2  | 
w:  Yıl lar  yı lı   |  sey *  *  *  *  *  re   |  dal *  sam  *  *  *  do ya  | 
d8 cdcd e4  | z2e4d2 e4 c4  | cBcd c2B2 A4 z4  | \
w:  mam   SAZ  |  Öy le  ser mes  |  tim  *  *  *  *  *  ki   | 
B4 A2B2 d4 A2B2  | 
w:  as la  *  *  a ya  | 
G8 ABAB G4  | dede c4 cdc=B c4  | cdcd B4 BcBA B4  | 
w:  mam   SAZ  |  ARANAĞME  |   | 
BcBc A4 ABAG A4  | AcBA BABc d8  | dede c4 cdc=B c4  | 
w:   |   |   | 
cdcd B4 BcBA B4  | BcBc A4 ABAG A4  | \
w:   |   | 
ABAB G4 bag^f g4  | 
w:  SAZ  | 
d2g4a2 b6z2  | b3a b2c'2 d'4 z4  | d'3c' d'2e'2 d'2c'2 b2a2  | \
w:  Bu ram  bu ram   |  or *  *  *  da   |  ta *  rih  *  *  *  ko ku  | 
b8 a2c'2 b4  | 
w:  yor   SAZ  | 
z2b4a2 b4 g4  | g3f g2a2 f4 z4  | e4 e2d2 ^c2d2 e2d2  | \
w:  Il gıt  ıl gıt   |  kal *  *  *  be   |  il ham  *  *  *  a kı  | 
d8 bag^f g4  | 
w:  yor   SAZ  | 
d2g4a2 b6z2  | b3a b2c'2 d'4 z4  | d'3c' d'2e'2 d'2c'2 b2a2  | \
w:  Bu ram  bu ram   |  or *  *  *  da   |  ta *  rih  *  *  *  ko ku  | 
b8 a2c'2 b4  | 
w:  yor   SAZ  | 
z2b4a2 b4 g4  | g3f g2a2 f4 z4  | e4 e2d2 ^c2d2 e2d2  | \
w:  Il gıt  ıl gıt   |  kal *  *  *  be   |  il ham  *  *  *  a kı  | 
d8 fede d4  | 
w:  yor   SAZ  | 
e4 c4 cdc=B c4  | d4 B4 BcBA B4  | A2B4A2 G4 ^F2G2  | \
w:  Yıl dız  SAZ  |  yıl dız  SAZ  |  ka ran lı ğın  ö te  | 
A8 D2^F2 A4  | 
w:  si   SAZ  | 
B4 A4 B2G4z2  | c=Bcd c2B2 A4 d4  | d3c d2e2 d2c2 B2c2  | 
w:  Yıl lar  yı lı   |  sey *  *  *  *  *  re   |  dal *  sam  *  *  *  do ya  | 
d8 cdcd e4  | z2e4d2 e4 c4  | cBcd c2B2 A4 z4  | \
w:  mam   SAZ  |  Öy le  ser mes  |  tim  *  *  *  *  *  ki   | 
B4 A2B2 d4 A2B2  | 
w:  as la  *  *  a ya  | 
G8 ABAB G4  | e4 c4 cdc=B c4  | d4 B4 BcBA B4  | \
w:  mam   SAZ  |  Yıl dız  SAZ  |  yıl dız  SAZ  | 
A2B4A2 G4 ^F2G2  | 
w:  ka ran lı ğın  ö te  | 
A8 D2^F2 A4  | B4 A4 B2G4z2  | c=Bcd c2B2 A4 d4  | \
w:  si   SAZ  |  Yıl lar  yı lı   |  sey *  *  *  *  *  re   | 
d3c d2e2 d2c2 B2c2  | 
w:  dal *  sam  *  *  *  do ya  | 
d8 cdcd e4  | z2e4d2 e4 c4  | cBcd c2B2 A4 z4  | \
w:  mam   SAZ  |  Öy le  ser mes  |  tim  *  *  *  *  *  ki   | 
B4 A2B2 d4 A2B2  | 
w:  as la  *  *  a ya  | 
G8 ABAB G4  | |


